modules/framework7-icons/icons/persons_fill.svg

<?xml version="1.0" encoding="UTF-8"?>
<svg width="50px" height="50px" viewBox="0 0 50 50" version="1.1" xmlns="http://www.w3.org/2000/svg" xmlns:xlink="http://www.w3.org/1999/xlink">
    <!-- Generator: Sketch 40.1 (33804) - http://www.bohemiancoding.com/sketch -->
    <title>persons_fill</title>
    <desc>Created with Sketch.</desc>
    <defs></defs>
    <g id="Page-1" stroke="none" stroke-width="1" fill="none" fill-rule="evenodd">
        <g id="persons_fill" fill="#000000">
            <path d="M25,50 C38.8071187,50 50,38.8071187 50,25 C50,11.1928813 38.8071187,0 25,0 C11.1928813,0 0,11.1928813 0,25 C0,38.8071187 11.1928813,50 25,50 Z M21.5904111,8.24662764 C18.5372629,9.65284062 18.3300345,9.83481177 16.9527592,11.7319085 C14.7199779,14.8074024 16.1646923,18.6120778 16.2011508,21.4931906 C16.2074576,21.9915824 15.2295806,21.5562814 15.2830334,22.040139 C15.3623387,22.7580165 15.8230729,24.6874816 15.9544117,25.3125862 C16.3935731,27.4027671 16.4924813,26.8865252 16.9527592,27.9326413 C17.3755641,28.8935891 17.7245025,27.789004 18.102991,28.8245813 C18.4994518,29.9093322 18.3737386,32.6188732 18.7962922,33.6629711 C19.7957032,36.1324397 20.7871265,36.1499128 20.074002,38.7366843 C19.7879558,39.7742817 19.2532228,40.9195773 18.102991,41.2942208 C16.9527592,41.6688642 13.6499023,42.7000122 13.6499023,42.7000122 C13.6499023,42.7000122 19,46 25.9598684,46 C32.1837863,46 37.413383,42.227502 37.1667178,42.1329579 C35.2844523,41.411506 33.2632123,40.5875695 32.3899682,39.9610786 C31.6898865,39.4588194 30.5562563,37.7162434 31.2372406,35.4179125 C31.6107836,34.1571997 32.0239775,34.5472588 32.3899682,33.6629711 C32.8242861,32.6135948 32.59895,29.5897114 33.2357059,28.2355979 C33.3805718,27.9275287 34.1908392,27.8266387 34.3306724,27.466124 C34.7099982,26.4881552 35.5135697,22.9898765 35.7112358,22.040139 C35.7819649,21.7003031 34.2686222,21.8345742 34.3306724,21.4931906 C34.4686767,20.7339282 34.7799107,20.0524771 34.8537319,19.2790122 C35.0711281,17.0012354 34.8220655,13.3765201 34.3306724,11.7319085 C33.6832034,9.56493653 29.9474388,7.85499534 28.6258649,7.74317838 C27.6477473,7.66042088 27.4142089,7 26.3762801,7 C24.0171348,7 21.5904111,8.24662764 21.5904111,8.24662764 Z M42.3456512,36.8549803 C42.0184219,36.6848888 41.7190294,36.5087853 41.4652251,36.3266986 C41.0290479,36.0137724 40.3227538,34.9280821 40.7470325,33.4961357 C40.9797639,32.7106644 41.2371992,32.9536858 41.4652251,32.4027414 C41.7358215,31.7489406 41.5954286,29.8649478 41.9921514,29.0212843 C42.0824083,28.8293457 42.5872353,28.7664874 42.6743566,28.5418732 C42.9106908,27.9325619 43.411346,25.7530031 43.5344994,25.161281 C43.5785663,24.9495505 42.635697,25.0332064 42.6743566,24.8205116 C42.7603385,24.3474627 42.9542489,23.9228931 43.0002423,23.4409954 C43.1356883,22.021855 42.980513,19.7635215 42.6743566,18.7388667 C42.2709592,17.3887619 39.9434377,16.3234044 39.1200476,16.2537382 C38.6345554,16.2126612 38.4434912,15.9431596 38.0588907,15.8352609 C38.0686494,16.6391065 38.0447963,17.4107774 37.9819051,18.0697224 C37.9080839,18.8431873 37.5968499,19.5246384 37.4588456,20.2839008 C37.3967953,20.6252844 38.9101381,20.4910133 38.839409,20.8308492 C38.6417429,21.7805867 37.8381714,25.2788654 37.4588456,26.2568342 C37.3190124,26.6173489 36.508745,26.7182389 36.3638791,27.0263081 C35.7271232,28.3804216 35.9524593,31.404305 35.5181414,32.4536813 C35.1521507,33.337969 34.7389568,32.9479099 34.3654137,34.2086227 C33.6844294,36.5069536 34.8180597,38.2495296 35.5181414,38.7517888 C36.2193282,39.2548408 37.6606937,39.8851972 39.1759484,40.4875785 C41,39 41.4652251,38 42.3456512,36.8549803 Z M8.10723931,37.4787676 C8.31669863,37.4418756 8.49015198,37.4039444 8.60710103,37.3658528 C9.35603856,37.1219154 9.70421325,36.3761919 9.89046329,35.7005927 C10.354792,34.0162973 9.70925769,34.0049202 9.05852245,32.3970028 C8.78338984,31.717171 8.8652441,29.952938 8.60710103,29.2466363 C8.36066004,28.5723525 8.13345972,29.2915686 7.8581635,28.6658774 C7.55846793,27.9847316 7.49406691,28.3208664 7.2081207,26.9599103 C7.12260356,26.552893 6.82261087,25.2965821 6.77097365,24.8291586 C6.73616958,24.5141098 7.37288365,24.7975425 7.36877717,24.4730302 C7.34503832,22.5970835 6.40435768,20.1197879 7.8581635,18.1172761 C8.75493333,16.8820408 8.8898636,16.763556 10.8778258,15.8479443 C10.8778258,15.8479443 11.5450028,15.50521 12.4337519,15.2651595 C12.4671686,17.1158713 12.9050534,18.9597251 12.924917,20.5294322 C12.9312238,21.027824 11.9533468,20.592523 12.0067995,21.0763806 C12.0861049,21.7942581 12.5468391,23.7237232 12.6781779,24.3488278 C13.1173392,26.4390087 13.2162475,25.9227668 13.6765254,26.9688829 C14.0993303,27.9298307 14.4482686,26.8252456 14.8267572,27.8608229 C15.223218,28.9455738 15.0975047,31.6551148 15.5200583,32.6992127 C16.5194693,35.1686813 17.5108926,35.1861544 16.7977681,37.7729259 C16.511722,38.8105233 15.976989,39.9558189 14.8267572,40.3304624 C14.3450465,40.487361 13.035811,40.8603497 11.6766628,41.2409157 C11,40.6000061 10,40 8.10723931,37.4787676 Z" id="Combined-Shape"></path>
        </g>
    </g>
</svg>

<svg width="50" height="50" xmlns="http://www.w3.org/2000/svg"><path d="M25 50c13.807 0 25-11.193 25-25S38.807 0 25 0 0 11.193 0 25s11.193 25 25 25zM21.59 8.247c-3.053 1.406-3.26 1.588-4.637 3.485-2.233 3.075-.788 6.88-.752 9.761.006.499-.971.063-.918.547.08.718.54 2.647.671 3.273.44 2.09.538 1.574.999 2.62.423.96.772-.144 1.15.892.396 1.084.27 3.794.693 4.838 1 2.47 1.991 2.487 1.278 5.074-.286 1.037-.82 2.183-1.971 2.557-1.15.375-4.453 1.406-4.453 1.406S19 46 25.96 46c6.224 0 11.453-3.772 11.207-3.867-1.883-.721-3.904-1.545-4.777-2.172-.7-.502-1.834-2.245-1.153-4.543.374-1.26.787-.87 1.153-1.755.434-1.05.209-4.073.846-5.427.145-.308.955-.41 1.095-.77.379-.978 1.183-4.476 1.38-5.426.071-.34-1.442-.205-1.38-.547.138-.76.449-1.44.523-2.214.217-2.278-.032-5.902-.523-7.547-.648-2.167-4.384-3.877-5.705-3.989C27.648 7.66 27.414 7 26.376 7c-2.359 0-4.786 1.247-4.786 1.247zm20.756 28.608a7.308 7.308 0 0 1-.88-.528c-.437-.313-1.143-1.399-.719-2.83.233-.786.49-.543.718-1.094.27-.654.13-2.538.527-3.382.09-.192.595-.255.682-.48.237-.608.737-2.788.86-3.38.045-.211-.898-.128-.86-.34.086-.474.28-.898.326-1.38.136-1.42-.02-3.677-.326-4.702-.403-1.35-2.73-2.416-3.554-2.485-.485-.041-.677-.31-1.061-.419.01.804-.014 1.576-.077 2.235-.074.773-.385 1.455-.523 2.214-.062.341 1.451.207 1.38.547-.197.95-1 4.448-1.38 5.426-.14.36-.95.461-1.095.77-.637 1.353-.412 4.377-.846 5.427-.366.884-.779.494-1.153 1.755-.68 2.298.453 4.04 1.153 4.543.701.503 2.143 1.133 3.658 1.736C41 39 41.466 38 42.346 36.855zm-34.239.624c.21-.037.383-.075.5-.113.749-.244 1.097-.99 1.283-1.665.465-1.685-.18-1.696-.831-3.304-.276-.68-.194-2.444-.452-3.15-.246-.675-.474.045-.749-.581-.3-.681-.364-.345-.65-1.706-.085-.407-.385-1.663-.437-2.13-.035-.316.602-.032.598-.357-.024-1.876-.965-4.353.49-6.356.896-1.235 1.03-1.353 3.019-2.27 0 0 .667-.342 1.556-.582.033 1.85.471 3.695.49 5.264.007.499-.97.064-.917.547.08.718.54 2.648.671 3.273.44 2.09.538 1.574.999 2.62.422.96.771-.144 1.15.892.396 1.085.27 3.794.693 4.838 1 2.47 1.99 2.487 1.278 5.074-.286 1.038-.821 2.183-1.971 2.557-.482.157-1.791.53-3.15.91C11 40.6 10 40 8.107 37.48z" fill-rule="evenodd"/></svg>
